public/img/weather.svg

<svg viewBox="0 0 100 100" xmlns="http://www.w3.org/2000/svg" xml:space="preserve" style="fill-rule:evenodd;clip-rule:evenodd;stroke-linecap:round;stroke-linejoin:round;stroke-miterlimit:1.5"><path d="M29.433 15.835c-8.882 0-16.082 7.201-16.082 16.083C13.351 40.794 20.557 48 29.433 48c4.168 0 8.174-1.618 11.172-4.513" style="fill:none;stroke:#fff;stroke-width:5.23px" transform="matrix(.2035 1.03082 -1.03082 .2035 63.912 .926)"/><path d="m13.106 45.474-4.695 3.973" style="fill:none;stroke:#fff;stroke-width:5.23px" transform="translate(3.84 5.454) scale(1.05071)"/><path d="m13.106 45.474-4.695 3.973" style="fill:none;stroke:#fff;stroke-width:5.23px" transform="rotate(84.858 30.798 36.79) scale(1.05071)"/><path d="m13.106 45.474-4.695 3.973" style="fill:none;stroke:#fff;stroke-width:5.23px" transform="matrix(.75084 .735 -.735 .75084 35.605 -6.663)"/><path d="m13.106 45.474-4.695 3.973" style="fill:none;stroke:#fff;stroke-width:5.23px" transform="matrix(-.66252 .81551 -.81551 -.66252 81.309 32.81)"/><path d="m13.106 45.474-4.695 3.973" style="fill:none;stroke:#fff;stroke-width:5.23px" transform="matrix(-1.04929 .05467 -.05467 -1.04929 70.158 66.978)"/><path d="m13.106 45.474-4.695 3.973" style="fill:none;stroke:#fff;stroke-width:5.23px" transform="matrix(-1.04929 .05467 -.05467 -1.04929 49.878 137.45)"/><path d="m13.106 45.474-4.695 3.973" style="fill:none;stroke:#fff;stroke-width:5.23px" transform="matrix(-1.04929 .05467 -.05467 -1.04929 71.692 137.45)"/><path d="m13.106 45.474-4.695 3.973" style="fill:none;stroke:#fff;stroke-width:5.23px" transform="matrix(-1.04929 .05467 -.05467 -1.04929 93.23 137.45)"/><path d="M74.779 80.693H27.377c-7.207 0-12.089-5.216-9.557-11.684 2.575-6.578 13.613-6.14 13.613-6.14s-3.044-7.627 3.306-11.53c6.07-3.73 12.075 3.264 12.075 3.264s3.309-15.066 17.532-12.159c10.944 2.237 9.688 17.377 9.688 17.377s12.517.977 12.255 11.252c-.154 6.055-5.067 9.62-11.51 9.62Z" style="fill:none;stroke:#fff;stroke-width:5.23px" transform="translate(4.73 -8.636) scale(1.05071)"/></svg>

<?xml version="1.0" encoding="UTF-8" standalone="no"?>
<!DOCTYPE svg PUBLIC "-//W3C//DTD SVG 1.1//EN" "http://www.w3.org/Graphics/SVG/1.1/DTD/svg11.dtd">
<svg width="100%" height="100%" viewBox="0 0 100 100" version="1.1" xmlns="http://www.w3.org/2000/svg" xmlns:xlink="http://www.w3.org/1999/xlink" xml:space="preserve" xmlns:serif="http://www.serif.com/" style="fill-rule:evenodd;clip-rule:evenodd;stroke-linecap:round;stroke-linejoin:round;stroke-miterlimit:1.5;">
    <g transform="matrix(0.203494,1.03082,-1.03082,0.203494,63.9119,0.926155)">
        <path d="M29.433,15.835C20.551,15.835 13.351,23.036 13.351,31.918C13.351,40.794 20.557,48 29.433,48C33.601,48 37.607,46.382 40.605,43.487" style="fill:none;stroke:white;stroke-width:5.23px;"/>
    </g>
    <g transform="matrix(1.05071,0,0,1.05071,3.84087,5.45421)">
        <path d="M13.106,45.474L8.411,49.447" style="fill:none;stroke:white;stroke-width:5.23px;"/>
    </g>
    <g transform="matrix(0.0941673,1.04648,-1.04648,0.0941673,64.6789,2.81838)">
        <path d="M13.106,45.474L8.411,49.447" style="fill:none;stroke:white;stroke-width:5.23px;"/>
    </g>
    <g transform="matrix(0.750839,0.735009,-0.735009,0.750839,35.605,-6.6627)">
        <path d="M13.106,45.474L8.411,49.447" style="fill:none;stroke:white;stroke-width:5.23px;"/>
    </g>
    <g transform="matrix(-0.662522,0.815514,-0.815514,-0.662522,81.3088,32.8105)">
        <path d="M13.106,45.474L8.411,49.447" style="fill:none;stroke:white;stroke-width:5.23px;"/>
    </g>
    <g transform="matrix(-1.04929,0.0546652,-0.0546652,-1.04929,70.1584,66.9775)">
        <path d="M13.106,45.474L8.411,49.447" style="fill:none;stroke:white;stroke-width:5.23px;"/>
    </g>
    <g transform="matrix(-1.04929,0.0546652,-0.0546652,-1.04929,49.8781,137.45)">
        <path d="M13.106,45.474L8.411,49.447" style="fill:none;stroke:white;stroke-width:5.23px;"/>
    </g>
    <g transform="matrix(-1.04929,0.0546652,-0.0546652,-1.04929,71.6918,137.45)">
        <path d="M13.106,45.474L8.411,49.447" style="fill:none;stroke:white;stroke-width:5.23px;"/>
    </g>
    <g transform="matrix(-1.04929,0.0546652,-0.0546652,-1.04929,93.2296,137.45)">
        <path d="M13.106,45.474L8.411,49.447" style="fill:none;stroke:white;stroke-width:5.23px;"/>
    </g>
    <g transform="matrix(1.05071,0,0,1.05071,4.73042,-8.63552)">
        <path d="M74.779,80.693L27.377,80.693C20.17,80.693 15.288,75.477 17.82,69.009C20.395,62.431 31.433,62.869 31.433,62.869C31.433,62.869 28.389,55.242 34.739,51.339C40.809,47.609 46.814,54.603 46.814,54.603C46.814,54.603 50.123,39.537 64.346,42.444C75.29,44.681 74.034,59.821 74.034,59.821C74.034,59.821 86.551,60.798 86.289,71.073C86.135,77.128 81.222,80.693 74.779,80.693Z" style="fill:none;stroke:white;stroke-width:5.23px;"/>
    </g>
</svg>
